!! 00053] TT[KA
!! Kassette von Frau Li Wenzhen, Peking - Zum Gesangsheft
!!!OTL: Hao hua hong
!!!ARE: Guizhou
!! Ethnic Group: Buyi
!! MM,, Seite 28, 1
!!!SCT: C0793
!!!YEM: Copyright 1995, estate of Helmut Schaffrath.
**kern
*ICvox
*Ivox
!! 5/42+3 metric grouping
!! Mixed meters:  4/4; 3/4
*M4/4
*k[f#]
*G:
{4B
2e
4b
=1
8a
8g
2b
8a
8b
=2
*M3/4
4b
4a
4g
=3
*M4/4
2.e
4g}
=4
{4b
8a
8b
4e
4g
4a
=5
*M3/4
4b
4e
8a
8g
=6
[2.e
=7
4e]
2r}
=8
*M4/4
{4B
2e
4b
=9
8a
8g
2b
8a
8b
=10
*M3/4
4b
4a
4g
=11
*M4/4
2.e
4g}
=12
{4b
8a
8b
4e
4g
4a
=13
*M3/4
4b
4e
8a
8g
=14
[2.e
=15
4e]
2r}
==
!!!AGN: NN
!! Die Stuecke sind meist uebersteuert, also verzerrt.
!!    Einige Verzierungen.
!!!ONB: ESAC (Essen Associative Code) Database: CHINA
!!!AMT: irregular
!!!AIN: vox
!!!EED: Helmut Schaffrath
!!!EEV: 1.0
*-
!!!ONB: Tied note syntax fixed by Craig Sapp, 2004/05/03/
